optimized/24/solid/chat-bubble-left-ellipsis.svg

<svg xmlns="http://www.w3.org/2000/svg" viewBox="0 0 24 24">
  <path fill-rule="evenodd" d="M12.0003 2.25C9.57113 2.25 7.18302 2.42773 4.84836 2.771C2.87004 3.06188 1.5 4.79455 1.5 6.74064V12.7593C1.5 14.7054 2.87004 16.4381 4.84836 16.729C5.72491 16.8579 6.60901 16.9634 7.5 17.045V21C7.5 21.3033 7.68273 21.5768 7.96299 21.6929C8.24324 21.809 8.56583 21.7448 8.78033 21.5303L12.9638 17.3468C13.0318 17.2788 13.1266 17.2374 13.2302 17.2348C15.2361 17.1851 17.2123 17.0142 19.1516 16.7291C21.1299 16.4382 22.5 14.7056 22.5 12.7595V6.74056C22.5 4.79445 21.1299 3.06177 19.1516 2.77091C16.8171 2.4277 14.4292 2.25 12.0003 2.25ZM8.25 8.625C7.62868 8.625 7.125 9.12868 7.125 9.75C7.125 10.3713 7.62868 10.875 8.25 10.875C8.87132 10.875 9.375 10.3713 9.375 9.75C9.375 9.12868 8.87132 8.625 8.25 8.625ZM10.875 9.75C10.875 9.12868 11.3787 8.625 12 8.625C12.6213 8.625 13.125 9.12868 13.125 9.75C13.125 10.3713 12.6213 10.875 12 10.875C11.3787 10.875 10.875 10.3713 10.875 9.75ZM15.75 8.625C15.1287 8.625 14.625 9.12868 14.625 9.75C14.625 10.3713 15.1287 10.875 15.75 10.875C16.3713 10.875 16.875 10.3713 16.875 9.75C16.875 9.12868 16.3713 8.625 15.75 8.625Z" clip-rule="evenodd"/>
</svg>

<svg xmlns="http://www.w3.org/2000/svg" viewBox="0 0 24 24" fill="currentColor" aria-hidden="true">
  <path fill-rule="evenodd" d="M12 2.25c-2.429 0-4.817.178-7.152.521C2.87 3.061 1.5 4.795 1.5 6.741v6.018c0 1.946 1.37 3.68 3.348 3.97.877.129 1.761.234 2.652.316V21a.75.75 0 001.28.53l4.184-4.183a.39.39 0 01.266-.112c2.006-.05 3.982-.22 5.922-.506 1.978-.29 3.348-2.023 3.348-3.97V6.741c0-1.947-1.37-3.68-3.348-3.97A49.145 49.145 0 0012 2.25zM8.25 8.625a1.125 1.125 0 100 2.25 1.125 1.125 0 000-2.25zm2.625 1.125a1.125 1.125 0 112.25 0 1.125 1.125 0 01-2.25 0zm4.875-1.125a1.125 1.125 0 100 2.25 1.125 1.125 0 000-2.25z" clip-rule="evenodd"/>
</svg>
